X:1
T:Title
%%score 1 { 2 | 3 }
L:1/8
Q:1/4=97
M:4/4
K:Ab
V:1 treble nm="Grand Piano, Soprano"
V:2 bass nm="Choir Pad, 11.11.11.11 D"
V:3 bass 
V:1
 [Ec]>[Fd] [Ec]2 [DB]2 [DF]2 | [DG]2 [DF][CE] [CE]>[_C=D] [=CE]2 | [EA][EB] [EA]2 [EG]2 [EG][EA] | %3
w: By~George~Coles~Stebbins,~1917 * * * *|||
 [EB]E [EA]2 [EB]2 [Ec]2 | [Ec]>[Fd] [Ec]2 [DB]2 [DF]2 | [DG]2 [DF][CE] [CE]>[_C=D] [=CE]2 | %6
w: |||
 [CA]>[Ec] [DB]2 [DF]2 [=DA][DG] | [=DA][DB] [Ec]2 [_DB]2 [CA]2 | [Ec]>[Ed] [Ae]4 [EA]2 | %9
w: |||
 [EB][EA][EG][Gd] [Gd]>[_Gc] [=Gd]2 | [Gd]>[Ge] [Gd]4 [DF]2 | [EG][DF][CE][Ec] [Ec]>[=D_c] [E=c]2 | %12
w: |||
 [Ec]>[F=d] [Ae]4 [EA]2 | [EB][Ec][_Ge][Fd] [Fd]>[=Ec] [Fd]2- | [Fd]2 [Fd][EG] [EA][EB][Ec][Ed] | %15
w: |||
 [Ae][Af] [Ec]2 [DB]2 [CA]2- | [CA]6 z2 |] %17
w: ||
V:2
 A,>A, G,2 G,2 A,2 | B,2 A,A, A,>A, A,2 | CD C2 B,2 B,C | D[K:bass]B, A,2 G,2 A,2 | %4
 A,>A, G,2 G,2 A,2 | B,2 A,A, A,>A, A,2 | E,>A, F,2 B,2 F,=E, | F,A, A,2 G,2 A,2 | %8
 A,>B,[K:treble] C2 C2 C2- | CC[K:bass]B,B, B,>=A, B,2 | B,>C B,2 B,2 G,2- | G,G,A,A, A,>A, A,2 | %12
 A,>B,[K:treble] C2 C2 C2- | CA,[K:bass]A,A, A,>A, A,2- | A,2 B,B, B,B,A,B, | CD A,2 G,2 A,2- | %16
 A,6 z2 |] %17
V:3
 A,,>A,, E,2 E,2 E,2 | E,2 A,,A,, A,,>A,, A,,2 | A,,A,, E,2 E,2 E,E, | E,D, C,2 E,2 z2 | %4
 z2 E,2 E,2 E,2 | E,2 A,,A,, A,,>A,, A,,2 | A,,>A,, D,2 D,2 B,,B,, | B,,B,, E,2 E,2 A,,2 | %8
 z z/ A,/ A,2 A,2 A,2- | A,A,E,E, E,>E, E,2 | E,>E, E,2 E,2 E,2- | E,E,A,,A,, A,,>A,, A,,2 | %12
 z z/ A,/ A,2 A,2 A,2- | A, z D,D, D,>D, D,2- | D,2 D,E, F,G, z A, | A,D, E,2 E,2 A,,2- | %16
 A,,6 z2 |] %17

